src/img/pic/ico/metro-ico.svg

<svg width="20" height="20" viewBox="0 0 20 20" fill="none" xmlns="http://www.w3.org/2000/svg">
<path fill-rule="evenodd" clip-rule="evenodd" d="M10 20C15.5228 20 20 15.5228 20 10C20 4.47715 15.5228 0 10 0C4.47715 0 0 4.47715 0 10C0 15.5228 4.47715 20 10 20Z" fill="#349CEC"/>
<path d="M12.9357 14.7515L12.9852 8.55871H12.9481L10.6737 14.7515H9.19036L6.97775 8.55871H6.94067L6.99011 14.7515H5V6H8.00371L9.99382 11.6119H10.0433L11.9468 6H15V14.7515H12.9357Z" fill="white"/>
</svg>

<svg width="20" height="20" fill="none" xmlns="http://www.w3.org/2000/svg"><path fill-rule="evenodd" clip-rule="evenodd" d="M10 20c5.523 0 10-4.477 10-10S15.523 0 10 0 0 4.477 0 10s4.477 10 10 10z" fill="#FF6B2C"/><path d="M12.936 14.752l.05-6.193h-.038l-2.274 6.193H9.19L6.978 8.559H6.94l.05 6.193H5V6h3.004l1.99 5.612h.05L11.946 6H15v8.752h-2.064z" fill="#fff"/></svg>
